src/images/eclipse.svg

<svg width="60" height="60" viewBox="0 0 60 60" fill="none" xmlns="http://www.w3.org/2000/svg">
<circle cx="30" cy="30" r="30" fill="white"/>
<path fill-rule="evenodd" clip-rule="evenodd" d="M21 27C21.5523 27 22 27.4477 22 28V32C22 32.5523 21.5523 33 21 33C20.4477 33 20 32.5523 20 32L20 28C20 27.4477 20.4477 27 21 27Z" fill="#0E0C15"/>
<path fill-rule="evenodd" clip-rule="evenodd" d="M25.5 23C26.0523 23 26.5 23.4477 26.5 24L26.5 36C26.5 36.5523 26.0523 37 25.5 37C24.9477 37 24.5 36.5523 24.5 36L24.5 24C24.5 23.4477 24.9477 23 25.5 23Z" fill="#0E0C15"/>
<path fill-rule="evenodd" clip-rule="evenodd" d="M30 20C30.5523 20 31 20.4477 31 21V39C31 39.5523 30.5523 40 30 40C29.4477 40 29 39.5523 29 39V21C29 20.4477 29.4477 20 30 20Z" fill="#0E0C15"/>
<path fill-rule="evenodd" clip-rule="evenodd" d="M34.5 23C35.0523 23 35.5 23.4477 35.5 24V36C35.5 36.5523 35.0523 37 34.5 37C33.9477 37 33.5 36.5523 33.5 36V24C33.5 23.4477 33.9477 23 34.5 23Z" fill="#0E0C15"/>
<path fill-rule="evenodd" clip-rule="evenodd" d="M39 27C39.5523 27 40 27.4477 40 28V32C40 32.5523 39.5523 33 39 33C38.4477 33 38 32.5523 38 32V28C38 27.4477 38.4477 27 39 27Z" fill="#0E0C15"/>
</svg>

<svg xmlns="http://www.w3.org/2000/svg" width="60" height="60" fill="none"><circle cx="30" cy="30" r="30" fill="#fff"/><path fill="#0E0C15" fill-rule="evenodd" d="M21 27a1 1 0 0 1 1 1v4a1 1 0 1 1-2 0v-4a1 1 0 0 1 1-1ZM25.5 23a1 1 0 0 1 1 1v12a1 1 0 1 1-2 0V24a1 1 0 0 1 1-1ZM30 20a1 1 0 0 1 1 1v18a1 1 0 1 1-2 0V21a1 1 0 0 1 1-1ZM34.5 23a1 1 0 0 1 1 1v12a1 1 0 1 1-2 0V24a1 1 0 0 1 1-1ZM39 27a1 1 0 0 1 1 1v4a1 1 0 1 1-2 0v-4a1 1 0 0 1 1-1Z" clip-rule="evenodd"/></svg>
